X: 262
T: Esma
C: Bert Murray
R: jig
B: Bert Murray's "Bon Accord Collection" 1999 p.26
%
N: This tune was written for the wife of the broadcaster Robbie Shepherd.
Z: 2011 John Chambers <jc:trillian.mit.edu>
M: 6/8
L: 1/8
K: Bb
uF |\
d2f d2c | Bd2 F2B | GB2 B2G | F3- F2F |\
d2e d2c | BF2 D2F | =E2G c2B | A3- A2F |
d2f d2c | B2c B2F | GB2 c2B | d3- d2d |\
e2G Be2 | d2F Bd2 | c2F Ac2 | B3- B2 ||
B |\
B2A G2A | ^F2A D2e | d2c B2A | G3- G2B |\
c2d c2B | A2c f2A | c2B A2G | F3- F2F |
d2f d2c | Bd2 F2B | G2B c2B | d3- d2d |\
e2f g2e | dF2 B2d | cF2 A2c | B3- B2 |]

%%sep 2 1 500

